src/scalable/mimetypes/stock_script.svg

<?xml version="1.0" encoding="UTF-8" standalone="no"?>
<svg
   xmlns:dc="http://purl.org/dc/elements/1.1/"
   xmlns:cc="http://creativecommons.org/ns#"
   xmlns:rdf="http://www.w3.org/1999/02/22-rdf-syntax-ns#"
   xmlns:svg="http://www.w3.org/2000/svg"
   xmlns="http://www.w3.org/2000/svg"
   xmlns:xlink="http://www.w3.org/1999/xlink"
   xmlns:sodipodi="http://sodipodi.sourceforge.net/DTD/sodipodi-0.dtd"
   xmlns:inkscape="http://www.inkscape.org/namespaces/inkscape"
   width="48px"
   height="48px"
   viewBox="0 0 48 48"
   version="1.1"
   id="svg18"
   sodipodi:docname="stock_script.svg"
   inkscape:version="0.92.2 2405546, 2018-03-11">
  <metadata
     id="metadata22">
    <rdf:RDF>
      <cc:Work
         rdf:about="">
        <dc:format>image/svg+xml</dc:format>
        <dc:type
           rdf:resource="http://purl.org/dc/dcmitype/StillImage" />
      </cc:Work>
    </rdf:RDF>
  </metadata>
  <sodipodi:namedview
     pagecolor="#ffffff"
     bordercolor="#666666"
     borderopacity="1"
     objecttolerance="10"
     gridtolerance="10"
     guidetolerance="10"
     inkscape:pageopacity="0"
     inkscape:pageshadow="2"
     inkscape:window-width="1920"
     inkscape:window-height="1051"
     id="namedview20"
     showgrid="false"
     inkscape:zoom="4.9166667"
     inkscape:cx="24"
     inkscape:cy="24"
     inkscape:window-x="0"
     inkscape:window-y="29"
     inkscape:window-maximized="1"
     inkscape:current-layer="svg18" />
  <!-- Generator: Sketch 41.2 (35397) - http://www.bohemiancoding.com/sketch -->
  <title
     id="title2">stock_script</title>
  <desc
     id="desc4">Created with Sketch.</desc>
  <g
     id="g829">
    <rect
       rx="2"
       ry="1.9047618"
       y="4"
       x="6"
       height="40"
       width="36"
       id="rect834"
       style="opacity:1;fill:#fb8c00;fill-opacity:1;stroke:none;stroke-width:0.92582005;stroke-linecap:round;stroke-linejoin:round;stroke-miterlimit:4;stroke-dasharray:none;stroke-opacity:0.05882353;paint-order:markers stroke fill" />
    <path
       inkscape:connector-curvature="0"
       id="rect866"
       d="M 42,17.242188 A 40,40 0 0 1 23.494141,44 H 40 c 1.108,0 2,-0.849059 2,-1.904297 z"
       style="opacity:0.15;fill:url(#linearGradient877);fill-opacity:1;stroke:none;stroke-width:0.92582005;stroke-linecap:round;stroke-linejoin:round;stroke-miterlimit:4;stroke-dasharray:none;stroke-opacity:0.05882353;paint-order:markers stroke fill" />
  </g>
  <defs
     id="defs11">
    <linearGradient
       inkscape:collect="always"
       xlink:href="#linearGradient875"
       id="linearGradient877"
       x1="32.74707"
       y1="44"
       x2="32.74707"
       y2="17.242188"
       gradientUnits="userSpaceOnUse" />
    <linearGradient
       inkscape:collect="always"
       id="linearGradient875">
      <stop
         style="stop-color:#000000;stop-opacity:1;"
         offset="0"
         id="stop871" />
      <stop
         style="stop-color:#000000;stop-opacity:0;"
         offset="1"
         id="stop873" />
    </linearGradient>
  </defs>
  <g
     id="Page-1"
     stroke="none"
     stroke-width="1"
     fill="none"
     fill-rule="evenodd">
    <g
       id="stock_script">
      <path
         d="M24.3359375,26.3828125 C24.3359375,26.7473977 24.2460946,27.141925 24.0664062,27.5664062 C23.8867179,27.9908875 23.6041686,28.40755 23.21875,28.8164062 C22.8333314,29.2252625 22.3411488,29.5572904 21.7421875,29.8125 C21.1432262,30.0677096 20.4453165,30.1953125 19.6484375,30.1953125 C19.0442678,30.1953125 18.4947941,30.1380214 18,30.0234375 C17.5052059,29.9088536 17.0559916,29.73047 16.6523438,29.4882812 C16.2486959,29.2460925 15.8776059,28.9270853 15.5390625,28.53125 C15.2369777,28.1718732 14.9791677,27.7695335 14.765625,27.3242188 C14.5520823,26.878904 14.3919276,26.4036484 14.2851562,25.8984375 C14.1783849,25.3932266 14.125,24.8567737 14.125,24.2890625 C14.125,23.3671829 14.2591132,22.5416703 14.5273438,21.8125 C14.7955743,21.0833297 15.179685,20.459638 15.6796875,19.9414062 C16.17969,19.4231745 16.7656216,19.0286472 17.4375,18.7578125 C18.1093784,18.4869778 18.825517,18.3515625 19.5859375,18.3515625 C20.5130255,18.3515625 21.338538,18.5364565 22.0625,18.90625 C22.786462,19.2760435 23.3411439,19.7330702 23.7265625,20.2773438 C24.1119811,20.8216173 24.3046875,21.3359351 24.3046875,21.8203125 C24.3046875,22.0859388 24.2109384,22.3203115 24.0234375,22.5234375 C23.8359366,22.7265635 23.6093763,22.828125 23.34375,22.828125 C23.0468735,22.828125 22.8242195,22.7578132 22.6757812,22.6171875 C22.527343,22.4765618 22.3619801,22.2343767 22.1796875,21.890625 C21.8776027,21.3229138 21.5221375,20.8984389 21.1132812,20.6171875 C20.704425,20.3359361 20.2005238,20.1953125 19.6015625,20.1953125 C18.6484327,20.1953125 17.8893257,20.557288 17.3242188,21.28125 C16.7591118,22.005212 16.4765625,23.0338475 16.4765625,24.3671875 C16.4765625,25.257817 16.6015612,25.998695 16.8515625,26.5898438 C17.1015638,27.1809925 17.4557269,27.6223944 17.9140625,27.9140625 C18.3723981,28.2057306 18.9088511,28.3515625 19.5234375,28.3515625 C20.1901075,28.3515625 20.7539039,28.1861996 21.2148438,27.8554688 C21.6757836,27.5247379 22.0234363,27.0390657 22.2578125,26.3984375 C22.3567713,26.0963527 22.4791659,25.8502614 22.625,25.6601562 C22.7708341,25.4700511 23.0052067,25.375 23.328125,25.375 C23.604168,25.375 23.8411448,25.4713532 24.0390625,25.6640625 C24.2369802,25.8567718 24.3359375,26.0963527 24.3359375,26.3828125 Z M26.0859375,28.609375 L26.375,27.1484375 C25.6562464,27.1328124 25.296875,26.846357 25.296875,26.2890625 C25.296875,26.0286445 25.3867179,25.8164071 25.5664062,25.6523438 C25.7460946,25.4882804 26.0104149,25.40625 26.359375,25.40625 L26.7265625,25.40625 L27.171875,23.1328125 L26.359375,23.1328125 C26.0208316,23.1328125 25.7591155,23.0481779 25.5742188,22.8789062 C25.389322,22.7096346 25.296875,22.5026054 25.296875,22.2578125 C25.296875,21.9973945 25.3867179,21.7877612 25.5664062,21.6289062 C25.7460946,21.4700513 26.0104149,21.390625 26.359375,21.390625 L27.5234375,21.390625 L27.890625,19.6015625 C27.947917,19.2994777 28.0117184,19.0625009 28.0820312,18.890625 C28.1523441,18.7187491 28.2486973,18.5885421 28.3710938,18.5 C28.4934902,18.4114579 28.6536448,18.3671875 28.8515625,18.3671875 C29.1276055,18.3671875 29.3385409,18.4401034 29.484375,18.5859375 C29.6302091,18.7317716 29.703125,18.9192697 29.703125,19.1484375 C29.703125,19.2005211 29.6588546,19.4635393 29.5703125,19.9375 L29.28125,21.390625 L30.9921875,21.390625 L31.3671875,19.6015625 C31.4192711,19.3307278 31.4687498,19.11198 31.515625,18.9453125 C31.5625002,18.778645 31.6471348,18.6380214 31.7695312,18.5234375 C31.8919277,18.4088536 32.0703113,18.3515625 32.3046875,18.3515625 C32.5755222,18.3515625 32.7851555,18.4218743 32.9335938,18.5625 C33.082032,18.7031257 33.15625,18.893228 33.15625,19.1328125 C33.15625,19.242188 33.1497396,19.3489578 33.1367188,19.453125 C33.1236979,19.5572922 33.1067709,19.6575516 33.0859375,19.7539062 C33.0651041,19.8502609 33.0520834,19.9114582 33.046875,19.9375 L32.7578125,21.40625 C33.5026079,21.4218751 33.875,21.7109347 33.875,22.2734375 C33.875,22.5338555 33.7864592,22.7421867 33.609375,22.8984375 C33.4322908,23.0546883 33.1692726,23.1328125 32.8203125,23.1328125 L32.421875,23.1328125 L31.953125,25.40625 L32.8203125,25.40625 C33.1692726,25.40625 33.4322908,25.4895825 33.609375,25.65625 C33.7864592,25.8229175 33.875,26.0338529 33.875,26.2890625 C33.875,26.5442721 33.7877613,26.7513013 33.6132812,26.9101562 C33.4388012,27.0690112 33.1744809,27.1484375 32.8203125,27.1484375 L31.6171875,27.1484375 L31.25,28.9453125 C31.192708,29.2317723 31.1419273,29.4531242 31.0976562,29.609375 C31.0533852,29.7656258 30.9687506,29.9023432 30.84375,30.0195312 C30.7187494,30.1367193 30.5390637,30.1953125 30.3046875,30.1953125 C30.0442695,30.1953125 29.8385424,30.1223966 29.6875,29.9765625 C29.5364576,29.8307284 29.4609375,29.6406262 29.4609375,29.40625 C29.4609375,29.1927073 29.4973955,28.9270849 29.5703125,28.609375 L29.859375,27.1484375 L28.1328125,27.1484375 L27.765625,28.9453125 C27.6718745,29.388023 27.5742193,29.7070303 27.4726562,29.9023438 C27.3710932,30.0976572 27.1536475,30.1953125 26.8203125,30.1953125 C26.5546862,30.1953125 26.3463549,30.1223966 26.1953125,29.9765625 C26.0442701,29.8307284 25.96875,29.6406262 25.96875,29.40625 C25.96875,29.2864577 25.9830728,29.1523445 26.0117188,29.0039062 C26.0403647,28.855468 26.0651041,28.7239589 26.0859375,28.609375 Z M30.65625,23.1328125 L28.9296875,23.1328125 L28.46875,25.40625 L30.2109375,25.40625 L30.65625,23.1328125 Z"
         id="C#"
         fill="#FFFFFF" />
    </g>
  </g>
</svg>

<svg xmlns="http://www.w3.org/2000/svg" xmlns:xlink="http://www.w3.org/1999/xlink" width="48" height="48"><g paint-order="markers stroke fill"><rect rx="2" ry="1.905" y="4" x="6" height="40" width="36" fill="#fb8c00"/><path d="M42 17.242A40 40 0 0 1 23.494 44H40c1.108 0 2-.85 2-1.904z" opacity=".15" fill="url(#a)"/></g><defs><linearGradient xlink:href="#b" id="a" x1="32.747" y1="44" x2="32.747" y2="17.242" gradientUnits="userSpaceOnUse"/><linearGradient id="b"><stop offset="0"/><stop offset="1" stop-opacity="0"/></linearGradient></defs><path d="M24.336 26.383c0 .364-.09.759-.27 1.183-.18.425-.462.842-.847 1.25-.386.41-.878.741-1.477.997-.599.255-1.297.382-2.094.382A7.317 7.317 0 0 1 18 30.023a4.63 4.63 0 0 1-1.348-.535 4.547 4.547 0 0 1-1.113-.957 5.687 5.687 0 0 1-.773-1.207 6.294 6.294 0 0 1-.48-1.426 7.771 7.771 0 0 1-.161-1.609c0-.922.134-1.747.402-2.477a5.282 5.282 0 0 1 1.153-1.87 5.026 5.026 0 0 1 1.758-1.184 5.692 5.692 0 0 1 2.148-.406c.927 0 1.753.184 2.477.554.723.37 1.278.827 1.664 1.371.385.545.578 1.059.578 1.543 0 .266-.094.5-.282.703a.892.892 0 0 1-.68.305c-.296 0-.519-.07-.667-.21-.149-.141-.314-.384-.496-.727-.302-.568-.658-.993-1.067-1.274-.409-.281-.912-.422-1.511-.422-.954 0-1.713.362-2.278 1.086-.565.724-.847 1.753-.847 3.086 0 .89.125 1.632.375 2.223s.604 1.032 1.062 1.324c.458.292.995.438 1.61.438.666 0 1.23-.166 1.69-.497.462-.33.81-.816 1.044-1.457.099-.302.221-.548.367-.738.146-.19.38-.285.703-.285.276 0 .513.096.711.29a.963.963 0 0 1 .297.718zm1.75 2.226l.289-1.46c-.719-.016-1.078-.303-1.078-.86 0-.26.09-.473.27-.637.18-.164.443-.246.792-.246h.368l.445-2.273h-.813c-.338 0-.6-.085-.785-.254a.81.81 0 0 1-.277-.621c0-.26.09-.47.27-.63.18-.158.443-.237.792-.237h1.164l.368-1.79a3.84 3.84 0 0 1 .191-.71.875.875 0 0 1 .29-.391.801.801 0 0 1 .48-.133c.276 0 .487.073.632.219a.761.761 0 0 1 .22.562c0 .053-.045.316-.134.79l-.289 1.453h1.711l.375-1.79c.052-.27.102-.489.149-.656a.9.9 0 0 1 .254-.422c.122-.114.3-.171.535-.171.27 0 .48.07.629.21.148.141.222.331.222.57 0 .11-.006.217-.02.321-.012.104-.03.205-.05.3-.02.097-.034.158-.04.184l-.288 1.47c.745.015 1.117.304 1.117.866 0 .26-.089.47-.266.625-.177.157-.44.235-.789.235h-.398l-.469 2.273h.867c.35 0 .612.084.79.25a.832.832 0 0 1 .265.633.8.8 0 0 1-.262.621c-.174.159-.439.238-.793.238h-1.203l-.367 1.797a9.232 9.232 0 0 1-.152.664.886.886 0 0 1-.254.41c-.125.118-.305.176-.54.176-.26 0-.465-.073-.616-.218a.757.757 0 0 1-.227-.57c0-.214.036-.48.11-.798l.288-1.46h-1.726l-.367 1.796c-.094.443-.192.762-.293.957-.102.196-.32.293-.653.293-.265 0-.474-.073-.625-.218a.757.757 0 0 1-.226-.57c0-.12.014-.255.043-.403a37.7 37.7 0 0 0 .074-.395zm4.57-5.476H28.93l-.461 2.273h1.742l.445-2.273z" fill="#FFF" fill-rule="evenodd"/></svg>
